assets/img/icons/social-twitter.svg

<?xml version="1.0" encoding="UTF-8"?>
<svg width="20px" height="16px" viewBox="0 0 20 16" version="1.1" xmlns="http://www.w3.org/2000/svg" xmlns:xlink="http://www.w3.org/1999/xlink">
    <!-- Generator: Sketch 46.2 (44496) - http://www.bohemiancoding.com/sketch -->
    <title>twitter - FontAwesome</title>
    <desc>Created with Sketch.</desc>
    <defs>
        <path d="M20,3.9 C19.2639594,4.2125 18.464467,4.4375 17.6395939,4.525 C18.4898477,4.025 19.1370558,3.2375 19.4416244,2.3 C18.6548223,2.7625 17.7664975,3.1 16.8401015,3.275 C16.0913706,2.4875 15.0253807,2 13.8451777,2 C11.5736041,2 9.74619289,3.8125 9.74619289,6.0375 C9.74619289,6.35 9.78426396,6.6625 9.84771574,6.9625 C6.44670051,6.7875 3.41370558,5.1875 1.39593909,2.7375 C1.04060914,3.3375 0.837563452,4.025 0.837563452,4.775 C0.837563452,6.175 1.56091371,7.4125 2.66497462,8.1375 C1.99238579,8.1125 1.35786802,7.925 0.812182741,7.625 L0.812182741,7.675 C0.812182741,9.6375 2.22081218,11.2625 4.09898477,11.6375 C3.75634518,11.725 3.38832487,11.775 3.02030457,11.775 C2.75380711,11.775 2.5,11.75 2.24619289,11.7125 C2.76649746,13.3125 4.27664975,14.475 6.0786802,14.5125 C4.67005076,15.6 2.90609137,16.2375 0.989847716,16.2375 C0.647208122,16.2375 0.329949239,16.225 0,16.1875 C1.81472081,17.3375 3.97208122,18 6.29441624,18 C13.8324873,18 17.9568528,11.85 17.9568528,6.5125 C17.9568528,6.3375 17.9568528,6.1625 17.9441624,5.9875 C18.7436548,5.4125 19.4416244,4.7 20,3.9 Z" id="path-1"></path>
    </defs>
    <g id="Symbols" stroke="none" stroke-width="1" fill="none" fill-rule="evenodd">
        <g id="_Settings/Elements/Icon/Social/Twitter" transform="translate(0.000000, -2.000000)">
            <mask id="mask-2" fill="white">
                <use xlink:href="#path-1"></use>
            </mask>
            <use id="twitter---FontAwesome" fill="#FFFFFF" xlink:href="#path-1"></use>
        </g>
    </g>
</svg>

<svg width="20" height="16" xmlns="http://www.w3.org/2000/svg" xmlns:xlink="http://www.w3.org/1999/xlink"><defs><path d="M20 3.9a8.317 8.317 0 01-2.36.625A4.038 4.038 0 0019.442 2.3a8.14 8.14 0 01-2.602.975A4.118 4.118 0 0013.845 2c-2.271 0-4.099 1.813-4.099 4.037 0 .313.038.625.102.926a11.71 11.71 0 01-8.452-4.226 3.962 3.962 0 00-.558 2.038c0 1.4.723 2.637 1.827 3.362a4.176 4.176 0 01-1.853-.512v.05c0 1.962 1.409 3.587 3.287 3.962a4.37 4.37 0 01-1.079.138c-.266 0-.52-.025-.774-.063.52 1.6 2.03 2.763 3.833 2.8a8.289 8.289 0 01-5.09 1.726c-.342 0-.66-.013-.989-.05A11.711 11.711 0 006.294 18c7.538 0 11.663-6.15 11.663-11.488 0-.174 0-.35-.013-.524A8.741 8.741 0 0020 3.9z" id="a"/></defs><use fill="#FFF" xlink:href="#a" transform="translate(0 -2)" fill-rule="evenodd"/></svg>
